!!!OTL: 726a. Des Sommers letzte Rose.
!!!ARE: Europa, Mitteleuropa, Deutschland; Ireland
!!!SCT: B0726
!!!TXL: @@DE
!!!YEM: Copyright 1995, estate of Helmut Schaffrath.
**kern	**text
*ICvox	*
*Ivox	*
*clefG2	*
*M3/4	*
*k[b-]	*
*F:	*
!LO:TX:a:t=Gehalten.	!
{8.f	Letʒ-
16g	-te
=1	=1
4a	Ro-
4ff	-ſe,
8ddq	.
8.ddL	wie
16ccJ	.
=2	=2
4cc	magſt
8a	du
8r}	.
{8.fL	ſo
16gJ	.
=3	=3
(<8a	ein-
4cc)	.
8a	-ſam
(8aq	.
8.gL)	ver-
16fJ	.
=4	=4
2f}	-blühn?
{8.f	Dei-
16g	-ne
=5	=5
4a	freundli-
4ff	.
8ddq	.
8.ddL	-chen
16ccJ	.
=6	=6
4cc	Schwe-
8a	-ſtern
8r}	.
{8.fL	ſind
16gJ	.
=7	=7
(<8a	längſt,
4cc)	.
8a	ſchon
(8aq	.
8.gL)	längſt
16fJ	da-
=8	=8
2f}	-hin.
{8.cc	Kei-
16a	-ne
=9	=9
4.ff	Blü-
8ee	-the
8.ddL	haucht
16ccJ	.
=10	=10
4cc	Bal-
8a	-ſam
8r}	.
{8.ccL	mit
16aJ	.
=11	=11
(4.ff	la-
8ee)	.
8dd	-ben-
8cc#	-dem,
=12	=12
8ddSS	la-
16dd	-ben-
16ee	-dem
4ff;}	Duft,
{8.f	kei-
16g	-ne
=13	=13
4a	Blättchen
8.ffL	.
16eeJ	.
8eeq	.
8.ddL	mehr
16ccJ	.
=14	=14
4cc	flat-
8a	-tern
8r}	.
{8.fL	in
16gJ	.
=15	=15
(<8a	ſtür-
4cc)	.
8a	-mi-
(8aqq	.
8.gL)	-ſcher
16fJ	.
=16	=16
4f	Luſt.
4r}	.
==	==
!!!AGN: Jahreszeiten - Lied, Herbst
!!!GTL: Auslaendische Weisen, die in Deutschland gesungen wurden
!!!ONB: ESAC (Essen Associative Code) Database: BOEHME
!!!AMT: simple triple
!!!AIN: vox
!!!EED: Helmut Schaffrath
!!!EEV: 1.0
!!!RDF**kern: < = below
!!Jriſche Volksmelodie: Mel: Groves of Blarney.
!!@@COMMENT:"Freie Ueberſetʒung eines Liedes ged. v. Thomas Moore: Tis the last rose of summer.
!!Flotow hat dieſes Lied in ſeine Oper Martha" 1847 eingelegt, und dadurch iſts durch ganʒ
!!Deutſchland verbreitet worden."
!!@@END:
!!!URL-scan: https://archive.org/details/BoehmeVtLieder1895/page/n575/mode/2up
!!!ENC: Anna Maria Matuszewska
!!!EEV: 2024/18/07
*-	*-
